dist/img/svg/presale/stars.svg

<svg width="329" height="83" viewBox="0 0 329 83" fill="none" xmlns="http://www.w3.org/2000/svg">
<g filter="url(#filter0_f_1676_1048)">
<path d="M18 23L19.3471 27.1459H23.7063L20.1796 29.7082L21.5267 33.8541L18 31.2918L14.4733 33.8541L15.8204 29.7082L12.2937 27.1459H16.6529L18 23Z" fill="white"/>
</g>
<g filter="url(#filter1_f_1676_1048)">
<path d="M40 53L41.3471 57.1459H45.7063L42.1796 59.7082L43.5267 63.8541L40 61.2918L36.4733 63.8541L37.8204 59.7082L34.2937 57.1459H38.6529L40 53Z" fill="white"/>
</g>
<g filter="url(#filter2_f_1676_1048)">
<path d="M61 17L62.3471 21.1459H66.7063L63.1796 23.7082L64.5267 27.8541L61 25.2918L57.4733 27.8541L58.8204 23.7082L55.2937 21.1459H59.6529L61 17Z" fill="white"/>
</g>
<g filter="url(#filter3_f_1676_1048)">
<path d="M295 17L296.347 21.1459H300.706L297.18 23.7082L298.527 27.8541L295 25.2918L291.473 27.8541L292.82 23.7082L289.294 21.1459H293.653L295 17Z" fill="white"/>
</g>
<g filter="url(#filter4_f_1676_1048)">
<path d="M322 71L323.347 75.1459H327.706L324.18 77.7082L325.527 81.8541L322 79.2918L318.473 81.8541L319.82 77.7082L316.294 75.1459H320.653L322 71Z" fill="white"/>
</g>
<g filter="url(#filter5_f_1676_1048)">
<path d="M275 59L276.347 63.1459H280.706L277.18 65.7082L278.527 69.8541L275 67.2918L271.473 69.8541L272.82 65.7082L269.294 63.1459H273.653L275 59Z" fill="white"/>
</g>
<g filter="url(#filter6_f_1676_1048)">
<path d="M5 39L40.1338 59.5003" stroke="url(#paint0_linear_1676_1048)" stroke-width="2" stroke-linecap="round"/>
</g>
<g filter="url(#filter7_f_1676_1048)">
<path d="M260 2L295.134 22.5003" stroke="url(#paint1_linear_1676_1048)" stroke-width="2" stroke-linecap="round"/>
</g>
<defs>
<filter id="filter0_f_1676_1048" x="11.2936" y="22" width="13.4127" height="12.854" filterUnits="userSpaceOnUse" color-interpolation-filters="sRGB">
<feFlood flood-opacity="0" result="BackgroundImageFix"/>
<feBlend mode="normal" in="SourceGraphic" in2="BackgroundImageFix" result="shape"/>
<feGaussianBlur stdDeviation="0.5" result="effect1_foregroundBlur_1676_1048"/>
</filter>
<filter id="filter1_f_1676_1048" x="33.2936" y="52" width="13.4127" height="12.854" filterUnits="userSpaceOnUse" color-interpolation-filters="sRGB">
<feFlood flood-opacity="0" result="BackgroundImageFix"/>
<feBlend mode="normal" in="SourceGraphic" in2="BackgroundImageFix" result="shape"/>
<feGaussianBlur stdDeviation="0.5" result="effect1_foregroundBlur_1676_1048"/>
</filter>
<filter id="filter2_f_1676_1048" x="54.2936" y="16" width="13.4127" height="12.854" filterUnits="userSpaceOnUse" color-interpolation-filters="sRGB">
<feFlood flood-opacity="0" result="BackgroundImageFix"/>
<feBlend mode="normal" in="SourceGraphic" in2="BackgroundImageFix" result="shape"/>
<feGaussianBlur stdDeviation="0.5" result="effect1_foregroundBlur_1676_1048"/>
</filter>
<filter id="filter3_f_1676_1048" x="288.294" y="16" width="13.4126" height="12.854" filterUnits="userSpaceOnUse" color-interpolation-filters="sRGB">
<feFlood flood-opacity="0" result="BackgroundImageFix"/>
<feBlend mode="normal" in="SourceGraphic" in2="BackgroundImageFix" result="shape"/>
<feGaussianBlur stdDeviation="0.5" result="effect1_foregroundBlur_1676_1048"/>
</filter>
<filter id="filter4_f_1676_1048" x="315.294" y="70" width="13.4126" height="12.854" filterUnits="userSpaceOnUse" color-interpolation-filters="sRGB">
<feFlood flood-opacity="0" result="BackgroundImageFix"/>
<feBlend mode="normal" in="SourceGraphic" in2="BackgroundImageFix" result="shape"/>
<feGaussianBlur stdDeviation="0.5" result="effect1_foregroundBlur_1676_1048"/>
</filter>
<filter id="filter5_f_1676_1048" x="268.294" y="58" width="13.4126" height="12.854" filterUnits="userSpaceOnUse" color-interpolation-filters="sRGB">
<feFlood flood-opacity="0" result="BackgroundImageFix"/>
<feBlend mode="normal" in="SourceGraphic" in2="BackgroundImageFix" result="shape"/>
<feGaussianBlur stdDeviation="0.5" result="effect1_foregroundBlur_1676_1048"/>
</filter>
<filter id="filter6_f_1676_1048" x="-0.000183105" y="34" width="45.1342" height="30.5005" filterUnits="userSpaceOnUse" color-interpolation-filters="sRGB">
<feFlood flood-opacity="0" result="BackgroundImageFix"/>
<feBlend mode="normal" in="SourceGraphic" in2="BackgroundImageFix" result="shape"/>
<feGaussianBlur stdDeviation="2" result="effect1_foregroundBlur_1676_1048"/>
</filter>
<filter id="filter7_f_1676_1048" x="255" y="-3" width="45.1342" height="30.5005" filterUnits="userSpaceOnUse" color-interpolation-filters="sRGB">
<feFlood flood-opacity="0" result="BackgroundImageFix"/>
<feBlend mode="normal" in="SourceGraphic" in2="BackgroundImageFix" result="shape"/>
<feGaussianBlur stdDeviation="2" result="effect1_foregroundBlur_1676_1048"/>
</filter>
<linearGradient id="paint0_linear_1676_1048" x1="40.3187" y1="59.1841" x2="5.2705" y2="39.5674" gradientUnits="userSpaceOnUse">
<stop stop-color="#F4F6F8"/>
<stop offset="1" stop-color="#F4F6F8" stop-opacity="0"/>
</linearGradient>
<linearGradient id="paint1_linear_1676_1048" x1="295.319" y1="22.1841" x2="260.27" y2="2.56742" gradientUnits="userSpaceOnUse">
<stop stop-color="#F4F6F8"/>
<stop offset="1" stop-color="#F4F6F8" stop-opacity="0"/>
</linearGradient>
</defs>
</svg>

<svg width="329" height="83" viewBox="0 0 329 83" fill="none" xmlns="http://www.w3.org/2000/svg"><g filter="url(#filter0_f_1676_1048)"><path d="M18 23l1.347 4.146h4.36l-3.527 2.562 1.347 4.146L18 31.292l-3.527 2.562 1.347-4.146-3.526-2.562h4.359L18 23z" fill="#fff"/></g><g filter="url(#filter1_f_1676_1048)"><path d="M40 53l1.347 4.146h4.36l-3.527 2.562 1.347 4.146L40 61.292l-3.527 2.562 1.347-4.146-3.526-2.562h4.359L40 53z" fill="#fff"/></g><g filter="url(#filter2_f_1676_1048)"><path d="M61 17l1.347 4.146h4.36l-3.527 2.562 1.347 4.146L61 25.292l-3.527 2.562 1.347-4.146-3.526-2.562h4.359L61 17z" fill="#fff"/></g><g filter="url(#filter3_f_1676_1048)"><path d="M295 17l1.347 4.146h4.359l-3.526 2.562 1.347 4.146L295 25.292l-3.527 2.562 1.347-4.146-3.526-2.562h4.359L295 17z" fill="#fff"/></g><g filter="url(#filter4_f_1676_1048)"><path d="M322 71l1.347 4.146h4.359l-3.526 2.562 1.347 4.146L322 79.292l-3.527 2.562 1.347-4.146-3.526-2.562h4.359L322 71z" fill="#fff"/></g><g filter="url(#filter5_f_1676_1048)"><path d="M275 59l1.347 4.146h4.359l-3.526 2.562 1.347 4.146L275 67.292l-3.527 2.562 1.347-4.146-3.526-2.562h4.359L275 59z" fill="#fff"/></g><g filter="url(#filter6_f_1676_1048)"><path d="M5 39l35.134 20.5" stroke="url(#paint0_linear_1676_1048)" stroke-width="2" stroke-linecap="round"/></g><g filter="url(#filter7_f_1676_1048)"><path d="M260 2l35.134 20.5" stroke="url(#paint1_linear_1676_1048)" stroke-width="2" stroke-linecap="round"/></g><defs><filter id="filter0_f_1676_1048" x="11.294" y="22" width="13.413" height="12.854" filterUnits="userSpaceOnUse" color-interpolation-filters="sRGB"><feFlood flood-opacity="0" result="BackgroundImageFix"/><feBlend in="SourceGraphic" in2="BackgroundImageFix" result="shape"/><feGaussianBlur stdDeviation=".5" result="effect1_foregroundBlur_1676_1048"/></filter><filter id="filter1_f_1676_1048" x="33.294" y="52" width="13.413" height="12.854" filterUnits="userSpaceOnUse" color-interpolation-filters="sRGB"><feFlood flood-opacity="0" result="BackgroundImageFix"/><feBlend in="SourceGraphic" in2="BackgroundImageFix" result="shape"/><feGaussianBlur stdDeviation=".5" result="effect1_foregroundBlur_1676_1048"/></filter><filter id="filter2_f_1676_1048" x="54.294" y="16" width="13.413" height="12.854" filterUnits="userSpaceOnUse" color-interpolation-filters="sRGB"><feFlood flood-opacity="0" result="BackgroundImageFix"/><feBlend in="SourceGraphic" in2="BackgroundImageFix" result="shape"/><feGaussianBlur stdDeviation=".5" result="effect1_foregroundBlur_1676_1048"/></filter><filter id="filter3_f_1676_1048" x="288.294" y="16" width="13.413" height="12.854" filterUnits="userSpaceOnUse" color-interpolation-filters="sRGB"><feFlood flood-opacity="0" result="BackgroundImageFix"/><feBlend in="SourceGraphic" in2="BackgroundImageFix" result="shape"/><feGaussianBlur stdDeviation=".5" result="effect1_foregroundBlur_1676_1048"/></filter><filter id="filter4_f_1676_1048" x="315.294" y="70" width="13.413" height="12.854" filterUnits="userSpaceOnUse" color-interpolation-filters="sRGB"><feFlood flood-opacity="0" result="BackgroundImageFix"/><feBlend in="SourceGraphic" in2="BackgroundImageFix" result="shape"/><feGaussianBlur stdDeviation=".5" result="effect1_foregroundBlur_1676_1048"/></filter><filter id="filter5_f_1676_1048" x="268.294" y="58" width="13.413" height="12.854" filterUnits="userSpaceOnUse" color-interpolation-filters="sRGB"><feFlood flood-opacity="0" result="BackgroundImageFix"/><feBlend in="SourceGraphic" in2="BackgroundImageFix" result="shape"/><feGaussianBlur stdDeviation=".5" result="effect1_foregroundBlur_1676_1048"/></filter><filter id="filter6_f_1676_1048" x="0" y="34" width="45.134" height="30.5" filterUnits="userSpaceOnUse" color-interpolation-filters="sRGB"><feFlood flood-opacity="0" result="BackgroundImageFix"/><feBlend in="SourceGraphic" in2="BackgroundImageFix" result="shape"/><feGaussianBlur stdDeviation="2" result="effect1_foregroundBlur_1676_1048"/></filter><filter id="filter7_f_1676_1048" x="255" y="-3" width="45.134" height="30.5" filterUnits="userSpaceOnUse" color-interpolation-filters="sRGB"><feFlood flood-opacity="0" result="BackgroundImageFix"/><feBlend in="SourceGraphic" in2="BackgroundImageFix" result="shape"/><feGaussianBlur stdDeviation="2" result="effect1_foregroundBlur_1676_1048"/></filter><linearGradient id="paint0_linear_1676_1048" x1="40.319" y1="59.184" x2="5.271" y2="39.567" gradientUnits="userSpaceOnUse"><stop stop-color="#F4F6F8"/><stop offset="1" stop-color="#F4F6F8" stop-opacity="0"/></linearGradient><linearGradient id="paint1_linear_1676_1048" x1="295.319" y1="22.184" x2="260.27" y2="2.567" gradientUnits="userSpaceOnUse"><stop stop-color="#F4F6F8"/><stop offset="1" stop-color="#F4F6F8" stop-opacity="0"/></linearGradient></defs></svg>
